public/logos/nemo.svg

<svg width="240"
     height="25"
     viewBox="0 0 240 25"
     fill="none"
     xmlns="http://www.w3.org/2000/svg"
     class="w-full h-auto transition duration-500"
     data-v-655887d4="">
    <g data-v-655887d4="">
        <path d="M34.8937 18.7579V24.5072H30.5703V0.527344H34.8937V13.1167L46.2449 0.527344H51.433L41.7775 11.3538L52.5138 24.5072H46.9655L38.7847 14.4565L34.8937 18.7579Z"
              fill="#000000"
              data-v-655887d4=""></path>
        <path d="M213.088 24.5072H209.091L195.65 7.68699V24.5072H191.438V0.527344H195.329L208.875 17.6296V0.527344H213.088V24.5072Z"
              fill="#000000"
              data-v-655887d4=""></path>
        <path d="M186.464 0.527344H182.141V24.5025H186.464V0.527344Z"
              fill="#000000"
              data-v-655887d4=""></path>
        <path d="M178.431 24.5072H161.93V0.527344H166.253V20.6947H178.431V24.5072Z"
              fill="#000000"
              data-v-655887d4=""></path>
        <path d="M157.424 7.68457H152.957C152.563 5.28705 150.901 3.62759 147.336 3.62759C144.56 3.62759 142.725 5.10841 142.725 7.04993C142.725 8.85042 144.06 9.72951 146.505 10.1902L150.214 10.8954C154.465 11.7086 157.563 13.7536 157.563 17.7024C157.563 22.1449 153.634 25.0031 148.091 25.0031C141.894 25.0031 137.964 21.9333 137.57 16.6823H141.966C142.398 19.4653 144.632 21.2658 148.091 21.2658C150.79 21.2658 153.062 19.9636 153.062 17.9892C153.062 16.4708 152.087 15.3096 149.421 14.816L145.352 14.0403C140.63 13.1236 138.252 10.9001 138.252 7.48243C138.252 3.00706 142.071 0.0078125 147.514 0.0078125C152.452 0.0078125 156.848 2.05275 157.424 7.69397"
              fill="#000000"
              data-v-655887d4=""></path>
        <path d="M133.714 0.527344H129.391V24.5025H133.714V0.527344Z"
              fill="#000000"
              data-v-655887d4=""></path>
        <path d="M124.429 24.5072H120.427L106.986 7.68699V24.5072H102.773V0.527344H106.664L120.211 17.6296V0.527344H124.429V24.5072Z"
              fill="#000000"
              data-v-655887d4=""></path>
        <path d="M97.7989 24.5072H93.8022L80.3613 7.68699V24.5072H76.1484V0.527344H80.0395L93.586 17.6296V0.527344H97.7989V24.5072Z"
              fill="#000000"
              data-v-655887d4=""></path>
        <path d="M58.964 10.5076H70.6035V14.4188H58.964V20.5913H72.4385V24.5072H54.6406V0.527344H72.4385V4.44329H58.964V10.5076Z"
              fill="#000000"
              data-v-655887d4=""></path>
        <path d="M222.378 18.7579V24.5072H218.055V0.527344H222.378V13.1167L233.729 0.527344H238.917L229.262 11.3538L239.998 24.5072H234.45L226.269 14.4565L222.378 18.7579Z"
              fill="#000000"
              data-v-655887d4=""></path>
        <path d="M12.2496 0.511719H0V12.4993H12.2496V0.511719Z"
              fill="#00E63C"
              data-v-655887d4=""></path>
        <path d="M2.64062 12.4995V4.25391L9.9135 12.4995H2.64062Z"
              fill="#231F20"
              data-v-655887d4=""></path>
        <path d="M9.60796 0.511719H2.75781L9.60796 8.22138V0.511719Z"
              fill="#231F20"
              data-v-655887d4=""></path>
        <path d="M24.4996 0.511719H12.25V12.4993H24.4996V0.511719Z"
              fill="#00E63C"
              data-v-655887d4=""></path>
        <path d="M12.25 0.511719V12.4993H24.4996V9.89495H15.1467V7.8124H21.3483V5.21273H15.1467V3.11138H24.4996V0.511719H12.25Z"
              fill="#231F20"
              data-v-655887d4=""></path>
        <path d="M12.2496 12.5H0V24.4876H12.2496V12.5Z"
              fill="#00E63C"
              data-v-655887d4=""></path>
        <path d="M9.91013 12.5L6.19683 17.6852L2.64206 12.5H0V24.4876H2.6901V16.8531L5.22167 20.661H7.0471L9.55946 17.013V24.4876H12.2496V12.5H9.91013Z"
              fill="#231F20"
              data-v-655887d4=""></path>
        <path d="M24.4996 12.5H12.25V24.4876H24.4996V12.5Z"
              fill="#00E63C"
              data-v-655887d4=""></path>
        <path d="M23.2024 18.5176C23.2024 15.885 21.0888 13.7695 18.3987 13.7695C15.7086 13.7695 13.5469 15.885 13.5469 18.5176C13.5469 21.1501 15.7086 23.2186 18.3987 23.2186C21.0888 23.2186 23.2024 21.1031 23.2024 18.5176Z"
              fill="#231F20"
              data-v-655887d4=""></path>
    </g>
</svg>

<svg xmlns="http://www.w3.org/2000/svg" width="240" height="25" fill="none" class="w-full h-auto transition duration-500"><g><path fill="#000" d="M34.894 18.758v5.75H30.57V.527h4.324v12.589L46.244.527h5.189l-9.655 10.827 10.736 13.153h-5.549l-8.18-10.05-3.891 4.3ZM213.088 24.507h-3.997L195.65 7.687v16.82h-4.212V.527h3.891l13.546 17.103V.527h4.213v23.98ZM186.464.527h-4.323v23.976h4.323V.527ZM178.431 24.507H161.93V.527h4.323v20.168h12.178v3.812ZM157.424 7.685h-4.467c-.394-2.398-2.056-4.057-5.621-4.057-2.776 0-4.611 1.48-4.611 3.422 0 1.8 1.335 2.68 3.78 3.14l3.709.705c4.251.814 7.349 2.859 7.349 6.807 0 4.443-3.929 7.301-9.472 7.301-6.197 0-10.127-3.07-10.521-8.32h4.396c.432 2.782 2.666 4.583 6.125 4.583 2.699 0 4.971-1.302 4.971-3.277 0-1.518-.975-2.68-3.641-3.173l-4.069-.776c-4.722-.916-7.1-3.14-7.1-6.558 0-4.475 3.819-7.474 9.262-7.474 4.938 0 9.334 2.045 9.91 7.686M133.714.527h-4.323v23.976h4.323V.527ZM124.429 24.507h-4.002l-13.441-16.82v16.82h-4.213V.527h3.891l13.547 17.103V.527h4.218v23.98ZM97.799 24.507h-3.997l-13.44-16.82v16.82h-4.214V.527h3.892L93.585 17.63V.527h4.213v23.98ZM58.964 10.508h11.64v3.91h-11.64v6.173h13.475v3.916H54.64V.527h17.798v3.916H58.964v6.065ZM222.378 18.758v5.75h-4.323V.527h4.323v12.589L233.729.527h5.188l-9.655 10.827 10.736 13.153h-5.548l-8.181-10.05-3.891 4.3Z"/><path fill="#00E63C" d="M12.25.512H0v11.987h12.25V.512Z"/><path fill="#231F20" d="M2.64 12.5V4.253l7.274 8.245H2.64ZM9.608.512h-6.85l6.85 7.71V.511Z"/><path fill="#00E63C" d="M24.5.512H12.25v11.987H24.5V.512Z"/><path fill="#231F20" d="M12.25.512v11.987H24.5V9.895h-9.353V7.812h6.201v-2.6h-6.201v-2.1H24.5v-2.6H12.25Z"/><path fill="#00E63C" d="M12.25 12.5H0v11.988h12.25V12.5Z"/><path fill="#231F20" d="m9.91 12.5-3.713 5.185L2.642 12.5H0v11.988h2.69v-7.635l2.532 3.808h1.825l2.512-3.648v7.475h2.69V12.5H9.91Z"/><path fill="#00E63C" d="M24.5 12.5H12.25v11.988H24.5V12.5Z"/><path fill="#231F20" d="M23.202 18.518c0-2.633-2.113-4.748-4.803-4.748s-4.852 2.115-4.852 4.748c0 2.632 2.162 4.7 4.852 4.7 2.69 0 4.803-2.115 4.803-4.7Z"/></g></svg>
